X:19
T:Kemp's Jig
M:4/4
A:Bampton
O:English
R:Jig
P:A(AB2)4
K:D
P:A
f>g fe d>e dc | BABc d2 d2 | f/e/f/g/ fe d/c/d/e/ dc | BABc d2 d2 |]
P:B
fafa fa/g/ f/e/d | egeg ed/c/ Bc | dAFA dAFA | BABc d2 d2 |]
